img/icons/project/4.svg

<svg width="52" height="49" viewBox="0 0 52 49" fill="none" xmlns="http://www.w3.org/2000/svg">
<path d="M26.1404 9.04717C28.614 9.04717 30.6264 7.01789 30.6264 4.52359C30.6264 2.02928 28.614 0 26.1404 0C23.6667 0 21.6543 2.02928 21.6543 4.52359C21.6543 7.01789 23.6667 9.04717 26.1404 9.04717Z" fill="#343434"/>
<path d="M19.0368 22.9233H33.1806C34.1017 22.9233 34.8484 22.1704 34.8484 21.2415V15.023C34.8484 13.3015 33.7513 11.7752 32.129 11.2393L32.1215 11.2368L29.7486 10.8406C29.5467 10.7779 29.3309 10.8857 29.2582 11.0867L26.5659 18.5355C26.4106 18.9653 25.8079 18.9653 25.6525 18.5355L22.9602 11.0867C22.9016 10.9244 22.7498 10.8228 22.5871 10.8228C22.5486 10.8228 22.5092 10.8286 22.4704 10.8406L20.097 11.2363C18.4614 11.7858 17.3687 13.3148 17.3687 15.0436V21.2415C17.369 22.1704 18.1157 22.9233 19.0368 22.9233Z" fill="#343434"/>
<path d="M8.7805 35.1238C11.2541 35.1238 13.2666 33.0946 13.2666 30.6002C13.2666 28.1059 11.2541 26.0767 8.7805 26.0767C6.30688 26.0767 4.29443 28.1059 4.29443 30.6002C4.29443 33.0946 6.30688 35.1238 8.7805 35.1238Z" fill="#343434"/>
<path d="M14.7602 37.3159L14.7526 37.3135L12.3798 36.9172C12.1779 36.8546 11.962 36.9624 11.8894 37.1633L9.19711 44.6122C9.04176 45.0419 8.43906 45.0419 8.2837 44.6122L5.5914 37.1633C5.53279 37.001 5.38093 36.8994 5.21823 36.8994C5.17974 36.8994 5.14038 36.9052 5.10154 36.9172L2.72817 37.3129C1.09274 37.8625 0 39.3914 0 41.1203V47.3182C0 48.247 0.746686 48.9999 1.6678 48.9999H15.8116C16.7327 48.9999 17.4794 48.247 17.4794 47.3182V41.0996C17.4794 39.3784 16.3825 37.8519 14.7602 37.3159Z" fill="#343434"/>
<path d="M43.261 35.1238C45.7346 35.1238 47.747 33.0946 47.747 30.6002C47.747 28.1059 45.7346 26.0767 43.261 26.0767C40.7874 26.0767 38.7749 28.1059 38.7749 30.6002C38.7749 33.0946 40.7872 35.1238 43.261 35.1238Z" fill="#343434"/>
<path d="M49.2809 37.3159L49.2733 37.3135L46.9005 36.9172C46.6986 36.8546 46.4827 36.9624 46.4101 37.1633L43.7178 44.6122C43.5624 45.0419 42.9597 45.0419 42.8044 44.6122L40.1121 37.1633C40.0535 37.001 39.9016 36.8994 39.7389 36.8994C39.7004 36.8994 39.6611 36.9052 39.6222 36.9172L37.2489 37.3129C35.6132 37.8625 34.5205 39.3914 34.5205 41.1203V47.3182C34.5205 48.247 35.2672 48.9999 36.1883 48.9999H50.3321C51.2532 48.9999 51.9999 48.247 51.9999 47.3182V41.0996C52.0003 39.3784 50.9032 37.8519 49.2809 37.3159Z" fill="#343434"/>
<path d="M27.6199 24.1968H24.6594V30.9975L17.6904 38.0247C18.3213 38.8955 18.684 39.9634 18.684 41.0998V41.2448L26.1396 33.7266L33.3082 40.9553C33.3441 39.8039 33.7505 38.729 34.4309 37.8654L27.6199 30.9975V24.1968Z" fill="#343434"/>
<path d="M27.2117 10.8176C27.095 10.6896 26.9246 10.625 26.7521 10.625H25.4657C25.2932 10.625 25.1228 10.6894 25.0061 10.8176C24.8255 11.0159 24.7993 11.3024 24.9275 11.5265L25.6151 12.5717L25.2932 15.31L25.927 17.0103C25.9888 17.1812 26.2286 17.1812 26.2905 17.0103L26.9244 15.31L26.6025 12.5717L27.29 11.5265C27.4183 11.3024 27.3922 11.0159 27.2117 10.8176Z" fill="#343434"/>
<path d="M9.84251 36.8992C9.72582 36.7711 9.55542 36.7065 9.38292 36.7065H8.09651C7.92401 36.7065 7.75361 36.7709 7.63692 36.8992C7.45637 37.0975 7.43013 37.384 7.55837 37.608L8.24592 38.6533L7.92401 41.3914L8.55786 43.0916C8.61961 43.2626 8.85947 43.2626 8.92123 43.0916L9.55507 41.3914L9.23316 38.6533L9.92072 37.608C10.0491 37.3841 10.0231 37.0977 9.84251 36.8992Z" fill="#343434"/>
<path d="M44.363 36.8992C44.2463 36.7711 44.0759 36.7065 43.9034 36.7065H42.617C42.4445 36.7065 42.2741 36.7709 42.1574 36.8992C41.9769 37.0975 41.9506 37.384 42.0789 37.608L42.7664 38.6533L42.4445 41.3914L43.0784 43.0916C43.1401 43.2626 43.38 43.2626 43.4417 43.0916L44.0756 41.3914L43.7537 38.6533L44.4412 37.608C44.5698 37.3841 44.5436 37.0977 44.363 36.8992Z" fill="#343434"/>
</svg>

<svg width="52" height="49" fill="none" xmlns="http://www.w3.org/2000/svg"><path d="M26.14 9.047c2.474 0 4.486-2.03 4.486-4.523C30.626 2.029 28.614 0 26.14 0c-2.473 0-4.486 2.03-4.486 4.524s2.013 4.523 4.486 4.523zm-7.103 13.876H33.18c.92 0 1.667-.753 1.667-1.681v-6.219a3.979 3.979 0 0 0-2.719-3.784l-.008-.002-2.372-.396a.397.397 0 0 0-.49.246l-2.693 7.448a.485.485 0 0 1-.913 0l-2.693-7.448a.397.397 0 0 0-.49-.246l-2.373.395a4.005 4.005 0 0 0-2.728 3.808v6.197c0 .93.747 1.682 1.668 1.682zM8.78 35.124c2.474 0 4.487-2.03 4.487-4.524s-2.013-4.523-4.486-4.523c-2.474 0-4.487 2.029-4.487 4.523 0 2.495 2.013 4.524 4.487 4.524zm5.98 2.192l-.007-.003-2.373-.396a.397.397 0 0 0-.49.246l-2.693 7.45a.485.485 0 0 1-.913 0l-2.693-7.45a.398.398 0 0 0-.49-.246l-2.373.396A4.005 4.005 0 0 0 0 41.12v6.198C0 48.247.747 49 1.668 49h14.144c.92 0 1.667-.753 1.667-1.682V41.1a3.979 3.979 0 0 0-2.719-3.784zm28.501-2.192c2.474 0 4.486-2.03 4.486-4.524s-2.012-4.523-4.486-4.523c-2.474 0-4.486 2.029-4.486 4.523 0 2.495 2.012 4.524 4.486 4.524zm6.019 2.192l-.007-.003-2.373-.396a.397.397 0 0 0-.49.246l-2.692 7.45a.485.485 0 0 1-.914 0l-2.692-7.45a.398.398 0 0 0-.49-.246l-2.373.396a4.005 4.005 0 0 0-2.729 3.807v6.198c0 .929.747 1.682 1.668 1.682h14.144c.921 0 1.668-.753 1.668-1.682V41.1a3.978 3.978 0 0 0-2.72-3.784zM27.62 24.197h-2.96v6.8l-6.97 7.028c.631.87.994 1.938.994 3.075v.145l7.456-7.518 7.168 7.228a5.248 5.248 0 0 1 1.123-3.09l-6.811-6.868v-6.8z" fill="#343434"/><path d="M27.212 10.818a.619.619 0 0 0-.46-.193h-1.286a.618.618 0 0 0-.46.193.605.605 0 0 0-.079.709l.688 1.045-.322 2.738.634 1.7a.193.193 0 0 0 .364 0l.633-1.7-.322-2.738.688-1.045a.605.605 0 0 0-.078-.71zM9.843 36.9a.619.619 0 0 0-.46-.194H8.097a.618.618 0 0 0-.46.193.605.605 0 0 0-.079.709l.688 1.045-.322 2.738.634 1.7a.193.193 0 0 0 .363 0l.634-1.7-.322-2.738.688-1.045a.605.605 0 0 0-.078-.709zm34.52 0a.619.619 0 0 0-.46-.194h-1.286a.618.618 0 0 0-.46.193.605.605 0 0 0-.078.709l.687 1.045-.322 2.738.634 1.7a.193.193 0 0 0 .364 0l.634-1.7-.322-2.738.687-1.045a.605.605 0 0 0-.078-.709z" fill="#343434"/></svg>
